X: 18203
T: Humours Of Glendart, The
R: jig
M: 6/8
K: Dmajor
|:BAF AFD|~F3 DFA|BAF AFD|F~E2 EFA|
BAF AFD|~F3 DFA|dcB AFE|FDD D2 A:|
|:def d2B|ABA {B}AFA|def def|~e3 fdB|
def d2B|ABA {B}ABc|dcB AFE|FDD D2 A:|

